X:8
T:Ton double plin
%T:TD3
G:Kazimodal
R:Das Plin
C:Traditionnel
Q:C2=160
P:I4
M:4/4
S:Penno Skoulm
K:Am
P:I
|: "Am"EA/2A/2 AG AB "G"A2 | BB "F"ee dc "Em"B2 :|
|: "G"B>c dc "Em"BG E2 | "F"AA GA "G"Bc "Em"B2 |\
"G"B>c dc "Em"BG E2 | "F"AA "G"Gc/2c/2 c"Em"B "Am"A2 :|
